!!!COM: Palestrina, Giovanni Perluigi da
!!!OPR: Missa Repleatur os meum laude
!!!OTL: Agnus II
**kern	**kern	**kern	**kern	**kern	**kern
*Ibass	*Ibass	*Itenor	*Icalto	*Icant	*Icant
!Bassus 2	!Bassus 1	!Tenor	!Altus	!Cantus 2	!Cantus 1
*clefF4	*clefF4	*clefGv2	*clefG2	*clefG2	*clefG2
*k[]	*k[]	*k[]	*k[]	*k[]	*k[]
*E:phr	*E:phr	*E:phr	*E:phr	*E:phr	*E:phr
*M4/2	*M4/2	*M4/2	*M4/2	*M4/2	*M4/2
=1	=1	=1	=1	=1	=1
0r	0r	0r	0A	0r	1r
.	.	.	.	.	[1e
=2	=2	=2	=2	=2	=2
0r	0r	0r	1c	0r	1e]
.	.	.	1B	.	1g
=3	=3	=3	=3	=3	=3
0r	0r	0r	2A	0r	1f
.	.	.	1d	.	.
.	.	.	.	.	1e
.	.	.	2c	.	.
=4	=4	=4	=4	=4	=4
0r	0r	0r	2.f	0r	1.a
.	.	.	8e	.	.
.	.	.	8d	.	.
.	.	.	2c	.	.
.	.	.	2d	.	2a
=5	=5	=5	=5	=5	=5
0r	0r	0E	2G	0r	1b
.	.	.	2.g	.	.
.	.	.	.	.	2g
.	.	.	4f	.	.
.	.	.	2e	.	[2cc
=6	=6	=6	=6	=6	=6
0r	0r	1G	2d	0r	2cc]
.	.	.	1e	.	2b
.	.	1F	.	.	1a
.	.	.	[2d	.	.
=7	=7	=7	=7	=7	=7
0AA	0AA	1E	2d]	0r	2.a
.	.	.	4c	.	.
.	.	.	4B	.	8g
.	.	.	.	.	8f
.	.	[1A	2.c	.	2e
.	.	.	.	.	[2c
.	.	.	4d	.	.
=8	=8	=8	=8	=8	=8
1C	1C	2A]	2e	0r	4c]
.	.	.	.	.	4d
.	.	2A	2c	.	4e
.	.	.	.	.	4f
1BB	1BB	2B	1d	.	4g
.	.	.	.	.	4a
.	.	2G	.	.	4b
.	.	.	.	.	4g
=9	=9	=9	=9	=9	=9
1AA	1AA	1c	2r	0e	1a
.	.	.	2e	.	.
[1E	[1E	[1B	2.g	.	[1b
.	.	.	4f	.	.
=10	=10	=10	=10	=10	=10
2E]	2E]	1B]	4e	1g	2b]
.	.	.	4d	.	.
2E	2E	.	2.e	.	2g
2F	2F	1A	.	1f	[1a
.	.	.	4d	.	.
2D	2D	.	[2d	.	.
=11	=11	=11	=11	=11	=11
2A	2A	0r	2d]	1e	1a]
1AA	1AA	.	2c	.	.
.	.	.	4A	[1a	2.cc
.	.	.	4B	.	.
2AA	2AA	.	4c	.	.
.	.	.	4d	.	4b
=12	=12	=12	=12	=12	=12
1AA	1AA	0r	1e	2a]	1a
.	.	.	.	2a	.
1E	1E	.	2.e	2b	2g
.	.	.	.	2g	[2e
.	.	.	4d	.	.
=13	=13	=13	=13	=13	=13
1AA	1AA	0r	2c	1cc	2e]
.	.	.	2A	.	2f#
[1GG	[1GG	.	2B	[1b	[1g
.	.	.	4G	.	.
.	.	.	4A	.	.
=14	=14	=14	=14	=14	=14
1GG]	1GG]	1r	4B	1b]	1g]
.	.	.	4c	.	.
.	.	.	4d	.	.
.	.	.	4B	.	.
1r	1r	1A	4c	1a	2r
.	.	.	4d	.	.
.	.	.	2e	.	2cc
=15	=15	=15	=15	=15	=15
0r	0r	2A	2A	0r	2cc
.	.	2F	1d	.	2a
.	.	1G	.	.	1b
.	.	.	4c	.	.
.	.	.	4B	.	.
=16	=16	=16	=16	=16	=16
1r	1r	0A	1c#	0r	1.a
1D	1D	.	2d	.	.
.	.	.	[2f	.	2d
=17	=17	=17	=17	=17	=17
2D	2D	1D	4f]	0r	2f
.	.	.	4e	.	.
2BB	2BB	.	2d	.	2.g
1C	1C	2E	2.c	.	.
.	.	.	.	.	4f
.	.	[2G	.	.	2e
.	.	.	4B	.	.
=18	=18	=18	=18	=18	=18
[0D	[0D	4G]	1A	1r	0d
.	.	4F	.	.	.
.	.	2F	.	.	.
.	.	1D	[1f	1a	.
=19	=19	=19	=19	=19	=19
1D]	1D]	0r	1f]	2a	2r
.	.	.	.	2f	2a
2GG	2GG	.	1d	1g	2b
2BB	2BB	.	.	.	[2dd
=20	=20	=20	=20	=20	=20
1AA	1AA	0r	1e	0a	2dd]
.	.	.	.	.	2cc#
2.D	2.D	.	2f	.	2.dd
.	.	.	[2f	.	.
4E	4E	.	.	.	8cc
.	.	.	.	.	8b
=21	=21	=21	=21	=21	=21
2F	2F	0r	4f]	1d	2a
.	.	.	4e	.	.
2G	2G	.	2d	.	2b
2C	2C	.	2c	2e	2.g
2E	2E	.	2G	[2g	.
.	.	.	.	.	4a
=22	=22	=22	=22	=22	=22
1D	1D	1r	2r	4g]	2b
.	.	.	.	4f	.
.	.	.	2A	2f	2a
1GG	1GG	2r	2B	1d	[1g
.	.	2D	2d	.	.
=23	=23	=23	=23	=23	=23
2.C	2.C	2E	1.c	0r	1g]
.	.	1G	.	.	.
4BB	4BB	.	.	.	.
1AA	1AA	.	.	.	1r
.	.	2F#	2A	.	.
=24	=24	=24	=24	=24	=24
2GG	2GG	2.G	1d	0r	2r
2G	2G	.	.	.	2d
.	.	4A	.	.	.
1E	1E	2B	2r	.	2e
.	.	[2c	2G	.	2g
=25	=25	=25	=25	=25	=25
1F	1F	4c]	2A	0r	2.c
.	.	4B	.	.	.
.	.	1A	1c	.	.
.	.	.	.	.	4d
1E	1E	.	.	.	1e
.	.	2G#	2B	.	.
=26	=26	=26	=26	=26	=26
2AA	2AA	2A	2.c	1r	1e
2.A	2.A	2.c	.	.	.
.	.	.	4d	.	.
.	.	.	2e	2r	2e
4G	4G	4B	.	.	.
2F	2F	[2A	[2d	2d	2f
=27	=27	=27	=27	=27	=27
1E	1E	4A]	2d]	2e	1g
.	.	4G	.	.	.
.	.	2G	2c#	1g	.
1D	1D	1A	2d	.	2r
.	.	.	2A	2f#	2d
=28	=28	=28	=28	=28	=28
2.C	2.C	0r	1c	2.g	1e
8BB	8BB	.	.	4a	.
8AA	8AA	.	.	.	.
2GG	2GG	.	2d	2b	2g
2C	2C	.	2e	[2cc	2g
=29	=29	=29	=29	=29	=29
1AA	1AA	0r	2.c	4cc]	2f
.	.	.	.	4b	.
.	.	.	.	1a	2e
.	.	.	4d	.	.
1E	1E	.	2e	.	1e
.	.	.	[2E	2g#	.
=30	=30	=30	=30	=30	=30
0AA	0AA	0r	2E]	2a	1e
.	.	.	2.A	2.cc	.
.	.	.	.	.	2r
.	.	.	4G	4b	.
.	.	.	2A	[2a	2c
=31	=31	=31	=31	=31	=31
0r	0r	0r	1B-	4a]	1d
.	.	.	.	4g	.
.	.	.	.	2g	.
.	.	.	1A	1a	2f
.	.	.	.	.	2e
=32	=32	=32	=32	=32	=32
2.D	2.D	0r	2r	0r	2.f
.	.	.	2d	.	.
4E	4E	.	.	.	4g
2F	2F	.	2d	.	2a
[2G	[2G	.	2d	.	[2b-
=33	=33	=33	=33	=33	=33
2G]	2G]	1r	1G	0r	4b-]
.	.	.	.	.	4a
2E	2E	.	.	.	1g
1D	1D	2r	1A	.	.
.	.	[2A	.	.	2f
=34	=34	=34	=34	=34	=34
1E	1E	2A]	2r	0r	1e
.	.	2G	1e	.	.
2r	2r	2.c	.	.	1A
[2F	[2F	.	2c	.	.
.	.	4B	.	.	.
=35	=35	=35	=35	=35	=35
2F]	2F]	2A	2d	0r	1r
2E	2E	2G	1e	.	.
1A	1A	1F	.	.	2r
.	.	.	2d	.	[2a
=36	=36	=36	=36	=36	=36
2AA	2AA	1E	0e	0r	2a]
1C	1C	.	.	.	2g
.	.	2.A	.	.	2.cc
2AA	2AA	.	.	.	.
.	.	4G	.	.	4b
=37	=37	=37	=37	=37	=37
2D	2D	2F	2r	1r	2a
2E	2E	2E	2B	.	2g
2F	2F	1D	1d	2r	1f
2D	2D	.	.	[2a	.
=38	=38	=38	=38	=38	=38
1E	1E	0r	2c	2a]	2e
.	.	.	2B	2g	1e
2r	2r	.	2.A	2.cc	.
[2F	[2F	.	.	.	2c
.	.	.	4B	4b	.
=39	=39	=39	=39	=39	=39
2F]	2F]	0r	1c	2a	2f
2C	2C	.	.	2g	2e
2D	2D	.	[1A	1f	1a
2D	2D	.	.	.	.
=40	=40	=40	=40	=40	=40
1A	1A	0r	0A]	1e	1.a
2.D	2.D	.	.	2.a	.
.	.	.	.	.	4f
4E	4E	.	.	4g	4g
=41	=41	=41	=41	=41	=41
4F	4F	0r	1r	2f	4a
4G	4G	.	.	.	4b
1A	1A	.	.	2e	4cc
.	.	.	.	.	4a
.	.	.	2r	1d	1b
2G#	2G#	.	[2d	.	.
=42	=42	=42	=42	=42	=42
1A	1A	0r	2d]	0r	2e
.	.	.	2c	.	1a
2r	2r	.	2.f	.	.
2D	2D	.	.	.	2a
.	.	.	4e	.	.
=43	=43	=43	=43	=43	=43
2GG	2GG	1r	2d	0r	2g
2AA	2AA	.	2c	.	2.e
1C	1C	2.E	1e	.	.
.	.	.	.	.	4f
.	.	.	.	.	4g
.	.	4F	.	.	4a
=44	=44	=44	=44	=44	=44
1GG	1GG	4G	0d	0r	2b
.	.	4A	.	.	.
.	.	1B	.	.	1g
1D	1D	.	.	.	.
.	.	2A	.	.	2f#
=45	=45	=45	=45	=45	=45
2r	2r	1B	0G	0r	1g
1E	1E	.	.	.	.
.	.	2.c	.	.	2r
2C	2C	.	.	.	[2cc
.	.	4B	.	.	.
=46	=46	=46	=46	=46	=46
2F	2F	2A	2r	0r	2cc]
2C	2C	2G	1e	.	2cc
1D	1D	1F	.	.	2.a
.	.	.	2d	.	.
.	.	.	.	.	4b
=47	=47	=47	=47	=47	=47
1C	1C	2.E	1g	1r	2cc
.	.	.	.	.	1c
.	.	4F	.	.	.
[1C	[1C	[1G	2.g	2.e	.
.	.	.	.	.	[2e
.	.	.	4f	4f	.
=48	=48	=48	=48	=48	=48
2C]	2C]	1G]	2e	4g	4e]
.	.	.	.	4a	4f
2GG	2GG	.	2d	1b	2g
1AA	1AA	2r	1c	.	[1e
.	.	[2A	.	2a	.
=49	=49	=49	=49	=49	=49
1E	1E	2A]	2B	1b	1e]
.	.	2G#	1e	.	.
2r	2r	2.A	.	2.cc	1r
[2F	[2F	.	2c	.	.
.	.	4G	.	4b	.
=50	=50	=50	=50	=50	=50
2F]	2F]	2F	2.c	2a	1r
2E	2E	2C	.	2g	.
.	.	.	4B	.	.
1A	1A	1D	2A	1f	2r
.	.	.	2d	.	[2a
=51	=51	=51	=51	=51	=51
2AA	2AA	2A	2.c	[0e	2a]
2.C	2.C	2E	.	.	2g
.	.	.	4d	.	.
.	.	2G	4e	.	[1cc
4BB	4BB	.	4d	.	.
[2AA	[2AA	2A	4c	.	.
.	.	.	4B	.	.
=52	=52	=52	=52	=52	=52
2AA]	2AA]	1.E	2A	1e_	2cc]
2GG#	2GG#	.	2B	.	2b
[1AA	[1AA	.	2c	1e_	[1a
.	.	[2c	[2A	.	.
=53	=53	=53	=53	=53	=53
0AA]	0AA]	4c]	4A]	0e]	0a]
.	.	4B	4G#	.	.
.	.	4A	4A	.	.
.	.	4G#	4B	.	.
.	.	1A	1c	.	.
=54	=54	=54	=54	=54	=54
[0E	[0E	[0G#	[0B	[0e	[0b
=55	=55	=55	=55	=55	=55
0E]	0E]	0G#]	0B]	0e]	0b]
==	==	==	==	==	==
*-	*-	*-	*-	*-	*-
!!!CDT: 1525/^1526/-1594/2/2
!!!OCY: Italia
!!!AGN: Mass (Canonic)
!!!AST: renaissance, vocal
!!!ASW: Motet 1538 (Jacquet)
!!!PWK: Masses, Book 3
!!!RNB: Cadence finals: A,G,C
!!!YOR: Le Opere Complete, v. 6, p. 136
!!!YOO: Rome, Italy: Fratelli Scalera
!!!END: 1992//
!!!EED: John Miller
!!!YEC: Copyright 2000, John Miller
!!!YEN: United States of America
!!!YEM: Rights to all derivative electronic formats reserved.
!!!YEM: Refer to licensing agreement for further details.
!!!YEM: This file must be accompanied by the licensing agreement.
!!!YEM: A copy of the licensing agreement may be found at http://www.music-cog.ohio-state.edu/HumdrumDatabases/Palestrina/license.txt
!!!EMD: converted to Humdrum by Bret Aarden
